assets/svg/ecard-pay.svg

<?xml version="1.0" encoding="UTF-8"?>
<svg width="1000px" height="1000px" viewBox="0 0 1000 1000" version="1.1" xmlns="http://www.w3.org/2000/svg" xmlns:xlink="http://www.w3.org/1999/xlink">
    <!-- Generator: sketchtool 52.4 (67378) - http://www.bohemiancoding.com/sketch -->
    <title>ecard-pay</title>
    <desc>Created with sketchtool.</desc>
    <g id="新版图标" stroke="none" stroke-width="1" fill="none" fill-rule="evenodd">
        <g id="ecard-pay" fill="#323233">
            <g id="圆角-有赞E卡-线">
                <path d="M888.888889,166.666667 C919.611111,166.666667 944.444444,191.5 944.444444,222.222222 L944.444444,277.777778 L944.444444,333.333333 L944.444444,777.777778 C944.444444,808.5 919.611111,833.333333 888.888889,833.333333 L111.111111,833.333333 C80.4444444,833.333333 55.5555556,808.5 55.5555556,777.777778 L55.5555556,333.333333 L55.5555556,277.777778 L55.5555556,222.222222 C55.5555556,191.5 80.4444444,166.666667 111.111111,166.666667 L888.888889,166.666667 Z M111.111111,277.777778 L888.888889,277.777778 L888.888889,222.222222 L111.111111,222.222222 L111.111111,277.777778 Z M111.111111,777.777778 L888.888889,777.777778 L888.888889,333.333333 L111.111111,333.333333 L111.111111,777.777778 Z M416.666667,694.444444 L583.333333,694.444444 C598.666667,694.444444 611.111111,682 611.111111,666.666667 C611.111111,651.333333 598.666667,638.888889 583.333333,638.888889 L444.444444,638.888889 L444.444444,583.333333 L583.333333,583.333333 C598.666667,583.333333 611.111111,570.888889 611.111111,555.555556 C611.111111,540.222222 598.666667,527.777778 583.333333,527.777778 L444.444444,527.777778 L444.444444,472.222222 L583.333333,472.222222 C598.666667,472.222222 611.111111,459.777778 611.111111,444.444444 C611.111111,429.111111 598.666667,416.666667 583.333333,416.666667 L416.666667,416.666667 C401.333333,416.666667 388.888889,429.111111 388.888889,444.444444 L388.888889,666.666667 C388.888889,682 401.333333,694.444444 416.666667,694.444444" id="Fill-1"></path>
            </g>
        </g>
    </g>
</svg>

<svg width="1000" height="1000" xmlns="http://www.w3.org/2000/svg"><path d="M888.889 166.667c30.722 0 55.555 24.833 55.555 55.555v555.556c0 30.722-24.833 55.555-55.555 55.555H111.11c-30.667 0-55.555-24.833-55.555-55.555V222.222c0-30.722 24.888-55.555 55.555-55.555H888.89zM111.11 277.777H888.89v-55.555H111.11v55.556zm0 500H888.89V333.334H111.11v444.445zm305.556-83.333h166.666c15.334 0 27.778-12.444 27.778-27.777 0-15.334-12.444-27.778-27.778-27.778H444.444v-55.556h138.89c15.333 0 27.777-12.444 27.777-27.777 0-15.334-12.444-27.778-27.778-27.778H444.444v-55.556h138.89c15.333 0 27.777-12.444 27.777-27.778 0-15.333-12.444-27.777-27.778-27.777H416.667c-15.334 0-27.778 12.444-27.778 27.777v222.223c0 15.333 12.444 27.777 27.778 27.777" fill="#323233" fill-rule="evenodd"/></svg>
